X: 1571
T: Jack Kevans Mazurka
B: australian traditional tunes wiki
M:3/4
L:1/8
R: Mazurka
Q: 1/4=100
K:D
V:1 
|:AB|"D"F2F GAF|"G"G3Bed|"A"c2c dcB|"D"A3BAG|
F2F GAF|"G"GFG Bed|"A"c2c dec|"D"d4:|
|:A2|f2f fgf|"A"e2e dcd|efe gfe|"D"dcd BAd|
"D"f2f2gf|"A"e2e dcd|efe gfe|"D"d4:|
% abcbook-tune_id 6342d53a00fb112bed9cdc0d


% abcbook-boost 0
% abcbook-tablature 
% abcbook-transpose 
% abcbook-lastupdated 1665324371658
% abcbook-soundfonts 
% abcbook-repeats 1
% NFF Book 2006

